X:44
T:B044-  Bright was the morning
Q:1/4=120
L:1/4
M:6/4
K:Am
edec2B|dB2^G2e|c2Bcd2|(e3e3)|\
efg^c2c|d2ef2e|(e/2f/2)gfee2|(d3d3)|\
edec2B|dB2^G2e|f2edB2|(A3A3)|]

